X:135
T:Lasses Of Lethgon. Ru2.135, The
%%VWML:RutherfordVol2-2249-p68-0
F:http://www.vwml.org/record/RutherfordVol2/2249/p68
Z:vmp.Steve Mansfield 2015 www.village-music-project.org.uk
M:C
L:1/8
W:The first Cou. foot & cast off two Cou. .| Foot
W:It & cast up again :| Foot it all four & turn
W:Single .|. Gallop down one Cou. up again & cast
W:Off :|
Q:1/2=60
N:NB c2 in Mss
K:C
|:C | EGc2 GEc2 | (d/c/B/A/) cE D/D/D DF | EGc2 GEc2 | d/c/B/A/ cG C/C/C C :|
|: g | ecgc acgc | fag>e d/d/d dg |1 ecgc acgc | fdge c/c/c "NB"c :|
[2 Te>dcB GAcd | egde c/c/c c |]
T:Trip To York. Ru2.136, A
B:RUTHERFORD Complete Collection of 200 Country Dances Vol.2; 1759.
Z:vmp.Steve Mansfield 2015 www.village-music-project.org.uk
M:9/8
L:1/8
W:The first & 2d Cou. foot it & Right Hands
W:Across .| Foot it & Left Hands back again |
W:The first man sets to the 2d Wo. & turns
W:Her .|. The first Wo. sets to the 2d Man &
W:turns him :||: Cross over half Figure .||
W:Right Hands & Left :|
Q:3/8=110
K:G
|:B2g edc B3 | B2g dBG AFD | B2g edc B3 | A3 A2G AFD :|
|: E3 D2C B,3 | A,2A A2G FED | EFE DEC B,3 | A,GF G2D B,A,G, :|
|: G2B BAB BAB | GAB BAB AFD | G2B BAB BAB | A3 A2G FED :|
